public/assets/img/download.svg

<svg width="20" height="20" viewBox="0 0 20 20" fill="none" xmlns="http://www.w3.org/2000/svg">
<path fill-rule="evenodd" clip-rule="evenodd" d="M7.92349 13.0469V14.5313H5.15006C2.95604 14.5313 1.57584 13.0794 1.57584 11.2761C1.57584 9.68101 2.50032 8.41799 4.00422 8.13804C4.09537 6.29559 5.90526 5.09768 7.51334 5.47528C8.35969 4.25783 9.68782 3.40497 11.4001 3.40497C14.18 3.40497 16.3284 5.5469 16.3284 8.52867C17.637 9.03648 18.4248 10.1823 18.4248 11.6081C18.4248 13.3203 17.1292 14.5313 15.0654 14.5313H11.9925V13.0469H15.0133C16.2894 13.0469 16.9079 12.4154 16.9079 11.5039C16.9079 10.4492 16.1722 9.79169 14.9743 9.58986C14.8831 9.57684 14.8441 9.52476 14.8571 9.43361C14.8896 9.10809 14.9157 8.71096 14.8961 8.32684C14.7985 6.45835 13.3662 4.89585 11.387 4.89585C9.81802 4.89585 8.85448 5.72919 8.23599 6.86851C8.19693 6.94663 8.13834 6.95966 8.0537 6.94012C6.60188 6.52346 5.25422 7.20054 5.33235 9.08856C5.33886 9.18622 5.29328 9.2383 5.19563 9.2383C3.90657 9.2383 3.09276 10.0326 3.09276 11.237C3.09276 12.2331 3.83495 13.0469 5.15657 13.0469H7.92349ZM10.4886 18.3724C10.3063 18.5417 10.137 18.6068 9.95474 18.6068C9.77896 18.6068 9.60969 18.5417 9.4274 18.3724L7.25292 16.3216C7.12922 16.211 7.06412 16.0742 7.06412 15.8985C7.06412 15.5664 7.33755 15.3255 7.65657 15.3255C7.82584 15.3255 7.9886 15.3972 8.11229 15.5209L8.95865 16.3802L9.36229 16.875L9.27766 15.918V10.3386C9.27766 9.98049 9.57714 9.66799 9.95474 9.66799C10.3323 9.66799 10.6383 9.98049 10.6383 10.3386V15.918L10.5537 16.875L10.9573 16.3802L11.8037 15.5209C11.9209 15.3972 12.0836 15.3255 12.2529 15.3255C12.5719 15.3255 12.8454 15.5664 12.8454 15.8985C12.8454 16.0742 12.7868 16.211 12.6631 16.3216L10.4886 18.3724Z" fill="white"/>
</svg>

<svg width="20" height="20" fill="none" xmlns="http://www.w3.org/2000/svg"><path fill-rule="evenodd" clip-rule="evenodd" d="M7.923 13.047v1.484H5.15c-2.194 0-3.574-1.452-3.574-3.255 0-1.595.924-2.858 2.428-3.138.091-1.842 1.901-3.04 3.51-2.663.846-1.217 2.174-2.07 3.886-2.07 2.78 0 4.928 2.142 4.928 5.124 1.309.507 2.097 1.653 2.097 3.08 0 1.711-1.296 2.922-3.36 2.922h-3.072v-1.484h3.02c1.276 0 1.895-.632 1.895-1.543 0-1.055-.736-1.712-1.934-1.914-.09-.013-.13-.065-.117-.156.033-.326.059-.723.04-1.107-.098-1.869-1.53-3.431-3.51-3.431-1.569 0-2.533.833-3.151 1.973-.04.078-.098.09-.182.071-1.452-.417-2.8.26-2.722 2.149.007.097-.039.15-.136.15-1.29 0-2.103.794-2.103 1.998 0 .996.742 1.81 2.064 1.81h2.766Zm2.566 5.325c-.183.17-.352.235-.534.235-.176 0-.345-.065-.528-.235l-2.174-2.05a.539.539 0 0 1-.189-.423c0-.333.274-.573.593-.573.169 0 .332.071.455.195l.847.86.403.494-.084-.957v-5.58a.68.68 0 0 1 1.36 0v5.58l-.084.957.403-.495.847-.86a.621.621 0 0 1 .449-.194c.319 0 .592.24.592.572a.534.534 0 0 1-.182.424l-2.174 2.05Z" fill="#000" fill-opacity=".4"/></svg>
